X:9
T:Greensleeves
C:Traditional
L:1/8
M:3/4
K:Ador
A2 |: c4 d2 | e3f e2 | d4 B2 | G3 AB |
[1 c4 A2 | A3^G A2 | B4 G2 | E4 A2 :|]
[2 c3B A2 | ^G3F G2 | A6 | A6 |]
|: g6 | g3f e2 | d4 B2 | G3A B2 |
[1 c4 A2 | A3^G A2 | B4 G2 | E6 :|]
[2 c3B A2 | ^G3F G2 | A6 | A6 |]


